X: 28215
T: Mrs. Douglas Of Ednam
R: reel
M: 4/4
K: Amajor
d|{d}cA A/A/A A2 c|dBcA GBBd|cA A/A/A A2 c|defg aAA:|
d|ceae ceae|ceae fBBd|ceae ceae|fdec A/A/A Ad|
ceae ceae|ceae fBBd|ceag fedc|dfec A2 fe||

